X:29
T:Stow Fiar
M:2/4
L:1/8
B:Thompson's Compleat Collection of 200 Favourite Country Dances, vol. 2 (London, 1765)
Z:Transcribed and edited by Flynn Titford-Mock, 2007
Z:abc's:AK/Fiddler's Companion
K:Bb
Bc | d2 Bd | f2 df | b2f2 | f2g2 | f2 ed | edcB | AB c2 | c2 Bc d2 Bd | f2 df | b2f2 |
f3g | f2 ed | edcB | F2B2 | B2 :: d/c/ | BABG | d2 Bc | dcde | f2 de | f3g |
fdcB | AB c2 | c2 ga | bagf | b2 ag | fdcB | G2 FE | DF B2 | Gc e2 | .c2 .B2 | .B2 :|

